icons/Yaru-remix-dark/scalable/categories/preferences-other-symbolic.svg

<?xml version="1.0" encoding="UTF-8" standalone="no"?>
<svg
   xmlns:osb="http://www.openswatchbook.org/uri/2009/osb"
   xmlns:dc="http://purl.org/dc/elements/1.1/"
   xmlns:cc="http://creativecommons.org/ns#"
   xmlns:rdf="http://www.w3.org/1999/02/22-rdf-syntax-ns#"
   xmlns:svg="http://www.w3.org/2000/svg"
   xmlns="http://www.w3.org/2000/svg"
   xmlns:sodipodi="http://sodipodi.sourceforge.net/DTD/sodipodi-0.dtd"
   xmlns:inkscape="http://www.inkscape.org/namespaces/inkscape"
   height="16"
   id="svg7384"
   version="1.1"
   width="16"
   sodipodi:docname="preferences-other-symbolic.svg"
   inkscape:version="0.92.4 (5da689c313, 2019-01-14)">
  <sodipodi:namedview
     pagecolor="#ffffff"
     bordercolor="#666666"
     borderopacity="1"
     objecttolerance="10"
     gridtolerance="10"
     guidetolerance="10"
     inkscape:pageopacity="0"
     inkscape:pageshadow="2"
     inkscape:window-width="1296"
     inkscape:window-height="704"
     id="namedview8927"
     showgrid="false"
     inkscape:zoom="14.75"
     inkscape:cx="8"
     inkscape:cy="8"
     inkscape:window-x="70"
     inkscape:window-y="27"
     inkscape:window-maximized="1"
     inkscape:current-layer="svg7384" />
  <metadata
     id="metadata20854">
    <rdf:RDF>
      <cc:Work
         rdf:about="">
        <dc:title></dc:title>
        <dc:format>image/svg+xml</dc:format>
        <dc:type
           rdf:resource="http://purl.org/dc/dcmitype/StillImage" />
      </cc:Work>
    </rdf:RDF>
  </metadata>
  <defs
     id="defs7386">
    <linearGradient
       id="linearGradient5606"
       osb:paint="solid">
      <stop
         id="stop5608"
         offset="0"
         style="stop-color:#000000;stop-opacity:1;" />
    </linearGradient>
    <linearGradient
       id="linearGradient4526"
       osb:paint="solid">
      <stop
         id="stop4528"
         offset="0"
         style="stop-color:#ffffff;stop-opacity:1;" />
    </linearGradient>
    <linearGradient
       id="linearGradient3600-4"
       osb:paint="gradient">
      <stop
         id="stop3602-7"
         offset="0"
         style="stop-color:#f4f4f4;stop-opacity:1" />
      <stop
         id="stop3604-6"
         offset="1"
         style="stop-color:#dbdbdb;stop-opacity:1" />
    </linearGradient>
  </defs>
  <g
     id="layer9"
     label="status"
     style="display:inline"
     transform="translate(-773.00024,-92.999939)" />
  <g
     id="layer2"
     style="display:inline"
     transform="translate(-532.00004,-459.99994)" />
  <g
     id="layer4"
     style="display:inline"
     transform="translate(-532.00004,-459.99994)" />
  <g
     id="g1812"
     style="display:inline"
     transform="translate(-532.00004,-459.99994)" />
  <g
     id="g6217"
     style="display:inline"
     transform="translate(-532.00004,-459.99994)" />
  <g
     id="g1833"
     style="display:inline"
     transform="translate(-532.00004,-459.99994)" />
  <g
     id="layer1"
     style="display:inline"
     transform="translate(-532.00004,-459.99994)" />
  <path
     style="color:#000000;font-style:normal;font-variant:normal;font-weight:normal;font-stretch:normal;font-size:medium;line-height:normal;font-family:Sans;-inkscape-font-specification:Sans;text-indent:0;text-align:start;text-decoration:none;text-decoration-line:none;letter-spacing:normal;word-spacing:normal;text-transform:none;writing-mode:lr-tb;direction:ltr;text-anchor:start;display:inline;overflow:visible;visibility:visible;fill:#808080;fill-opacity:1;fill-rule:nonzero;stroke:none;stroke-width:2.99539447;marker:none;enable-background:accumulate"
     d="M 12.447266 0.08984375 C 10.535936 0.08984375 8.9863281 1.6349256 8.9863281 3.5410156 C 8.9863281 3.9364715 9.0780571 4.3199797 9.2011719 4.6738281 L 4.6914062 9.1816406 C 4.3344963 9.0575406 3.9481581 8.9648438 3.5488281 8.9648438 C 1.6374981 8.9648437 0.087890625 10.509936 0.087890625 12.416016 C 0.087890625 12.780216 0.1685875 13.135264 0.2734375 13.464844 L 2.2207031 11.523438 C 2.4143731 11.330287 2.6788906 11.214844 2.9316406 11.214844 C 3.1844006 11.214844 3.4488981 11.330288 3.6425781 11.523438 L 4.3222656 12.201172 C 4.7096156 12.587472 4.7096156 13.232851 4.3222656 13.619141 L 2.3125 15.621094 C 2.69488 15.766214 3.1153681 15.867188 3.5488281 15.867188 C 4.8844504 15.867188 6.0304565 15.104955 6.6074219 14 L 6 14 C 5.446 14 5 13.554 5 13 L 5 11 C 5 10.446 5.446 10 6 10 L 8.0703125 10 L 10.123047 7.9492188 C 10.125622 7.9492431 10.128284 7.9491863 10.130859 7.9492188 L 11.304688 6.7773438 C 11.661587 6.9014438 12.047936 6.9921875 12.447266 6.9921875 C 14.358596 6.9921875 15.908203 5.4470956 15.908203 3.5410156 C 15.908203 3.1427756 15.817799 2.7582538 15.693359 2.4023438 L 13.808594 4.28125 C 13.421244 4.66753 12.805309 4.66753 12.417969 4.28125 L 11.707031 3.5722656 C 11.319691 3.1859656 11.319691 2.5718169 11.707031 2.1855469 L 13.591797 0.30664062 C 13.234887 0.18252062 12.846596 0.08984375 12.447266 0.08984375 z "
     id="path3908-8" />
  <path
     style="color:#000000;clip-rule:nonzero;display:block;overflow:visible;visibility:visible;opacity:1;isolation:auto;mix-blend-mode:normal;color-interpolation:sRGB;color-interpolation-filters:linearRGB;solid-color:#000000;solid-opacity:1;fill:#808080;fill-opacity:1;fill-rule:nonzero;stroke:none;stroke-width:1;stroke-linecap:round;stroke-linejoin:round;stroke-miterlimit:4;stroke-dasharray:none;stroke-dashoffset:0;stroke-opacity:1;marker:none;marker-start:none;marker-mid:none;marker-end:none;paint-order:normal;color-rendering:auto;image-rendering:auto;shape-rendering:auto;text-rendering:auto;enable-background:new"
     d="m 6.99433,10.99997 c -0.55117,0 -0.99482,0.44367 -0.99482,0.99481 v 0.0104 c 0,0.55114 0.44365,0.99481 0.99482,0.99481 h 0.0106 c 0.55117,0 0.99482,-0.44367 0.99482,-0.99481 v -0.0104 c 0,-0.55114 -0.44365,-0.99481 -0.99482,-0.99481 z m 2.99988,-10e-6 c -0.55117,0 -0.99482,0.44367 -0.99482,0.99481 v 0.0104 c 0,0.55114 0.44365,0.99481 0.99482,0.99481 h 0.0106 c 0.55117,0 0.99482,-0.44367 0.99482,-0.99481 v -0.0104 c 0,-0.55114 -0.44365,-0.99481 -0.99482,-0.99481 z m 3,0 c -0.55117,0 -0.99482,0.44367 -0.99482,0.99481 v 0.0104 c 0,0.55114 0.44365,0.99481 0.99482,0.99481 h 0.0106 c 0.55117,0 0.99482,-0.44367 0.99482,-0.99481 v -0.0104 c 4e-5,-0.55114 -0.44361,-0.99481 -0.99478,-0.99481 z"
     id="path2396-7"
     inkscape:connector-curvature="0"
     sodipodi:nodetypes="sssssssssssssssssssssssscss" />
</svg>

<svg xmlns="http://www.w3.org/2000/svg" height="16" width="16">
    <path style="line-height:normal;-inkscape-font-specification:Sans;text-indent:0;text-align:start;text-decoration-line:none;text-transform:none;marker:none" d="M12.447.09a3.456 3.456 0 00-3.46 3.451c0 .395.091.779.214 1.133l-4.51 4.508a3.496 3.496 0 00-1.142-.217 3.456 3.456 0 00-3.461 3.451c0 .364.08.72.185 1.049l1.948-1.942c.193-.193.458-.308.71-.308.253 0 .518.115.712.308l.68.678a1.01 1.01 0 010 1.418l-2.01 2.002c.382.145.802.246 1.236.246A3.449 3.449 0 006.607 14H6c-.554 0-1-.446-1-1v-2c0-.554.446-1 1-1h2.07l2.053-2.05h.008l1.174-1.173c.357.124.743.215 1.142.215a3.456 3.456 0 003.461-3.451c0-.398-.09-.783-.215-1.139l-1.884 1.88a.98.98 0 01-1.391 0l-.711-.71a.973.973 0 010-1.386l1.885-1.88A3.507 3.507 0 0012.447.09z" color="#000" font-weight="400" font-family="Sans" overflow="visible" fill="gray"/>
    <path style="isolation:auto;mix-blend-mode:normal;solid-color:#000;solid-opacity:1;marker:none" d="M6.994 11a.993.993 0 00-.994.995v.01c0 .551.443.995.994.995h.01A.993.993 0 008 12.005v-.01A.993.993 0 007.005 11zm3 0a.993.993 0 00-.995.995v.01c0 .551.444.995.995.995h.01a.993.993 0 00.996-.995v-.01a.993.993 0 00-.995-.995zm3 0a.993.993 0 00-.995.995v.01c0 .551.444.995.995.995h.01a.993.993 0 00.996-.995v-.01a.993.993 0 00-.995-.995z" color="#000" display="block" overflow="visible" fill="gray"/>
</svg>
